X:1
T:Little Fugue in G Minor
T:BWV 578: "Little" Fugue in G Minor
T:For Organ
T:J. S. Bach
T:MDCCV
T:MDCCV
T:MDCCV
T:MDCCV
T:MDCCV
T:MDCCV
T:MDCCV
T:MDCCV
T:MDCCV
T:MDCCV
C:J. S. Bach
Z:MDCCV
%%score { ( 1 4 ) | ( 2 5 ) | 3 }
L:1/8
Q:1/4=75
M:4/4
K:Bb
V:1 treble nm="Pipe Organ" snm="Org."
V:4 treble 
V:2 bass 
V:5 bass 
V:3 bass-8 
V:1
 G2 d2 B3 A | GBAG ^FA !tenuto!.D2 | G.DA.D BA/G/ A.D | GD/G/ AD/A/ BA/G/ A/D/d/c/ | %4
 B/A/G/B/ A/G/^F/A/ G/D/G/A/ B/c/d/=e/ | f/=e/d/f/ e/d/^c/e/ .d.A.d.e | %6
 f/g/f/g/ (9:6:9g/4a/4g/4a/4g/4a/4g/4a/4g/4f/4g/4 a/g/a/b/ a/g/f/=e/ | %7
 f/a/g/a/ ^c/a/g/a/ d/a/g/a/ c/a/g/a/ | f/d/^c/d/ g/d/c/d/ a/d/c/d/ g/d/c/d/ | AfG=e FAdf | %10
 _ea z e dg z d | c/B/c/d/ c/a/g/a/ B/g/^f/g/ A/f/=e/f/ | g4 z4 | z4 B/d/c/d/ ^F/d/c/d/ | %14
 G/d/c/d/ ^F/d/c/d/ B2 c2 | d2 c2 z B z A | z D G/A/B/G/ Ad^c=e | a/b/a/g/ f/=e/d/^c/ d z b z | %18
 =e z z a Ta4 | Ta8 | Ta4 a/g/a/b/ a/g/f/=e/ |"_legato" f4- fdgf | _e4- ecfe | %23
 d2- d/g/^f/g/ c2- c/B/A/c/ | B/A/G/B/ A/G/^F/A/ G/D/=E/F/ G/D/G/A/ | B/G/B/c/ d/A/d/c/ B3 A | %26
 GBAG ^FA !tenuto!.D2 | G.DA.D BA/G/ A.D | GD/G/ AD/A/ BA/G/ A/D/d/c/ | %29
 B/A/G/B/ A/G/^F/A/ G/B/c/d/ e/B/A/G/ | ^F/A/B/c/ d/A/G/=F/ E/G/A/B/ c/G/F/E/ | %31
 D/F/G/A/ B/d/c/B/ A/c/d/e/ f/g/f/e/ | d/f/e/d/ c/B/A/c/ B/F/G/A/ B/c/B/c/ | %33
 d/=e/d/e/ (9:6:9e/4f/4e/4f/4e/4f/4e/4f/4e/4d/4e/4 f/_e/f/g/ f/e/d/c/ | %34
 d/f/e/f/ A/f/e/f/ B/f/e/f/ A/f/e/f/ | d/B/A/B/ e/B/A/B/ f/B/A/B/ e/B/A/B/ | %36
 B/c/d/B/ e/d/c/e/ d/c/d/e/ d/c/B/d/ | c/B/c/d/ c/B/A/c/ B/A/B/c/ B/A/G/B/ | Af z _A Ge z G | %39
 Fd z F E/G/c/B/ A/G/F/E/ | D/E/F/G/ A/B/c/A/ B/F/G/A/ B/c/B/c/ | %41
 d/=e/d/e/ (9:6:9e/4f/4e/4f/4e/4f/4e/4f/4e/4d/4e/4 f/_e/f/g/ ff | Tf8 | Tf8 | %44
 f/e/f/g/ c>a"_legato" b/a/b/c'/ b/a/g/f/ | e/d/e/f/ e/d/c/B/ a/g/a/b/ a/g/f/e/ | %46
 d/c/d/e/ d/c/B/A/ g/f/g/_a/ g/f/e/d/ | c/B/c/d/ c/d/e/c/ f2- f/_a/g/f/ | e4- e/c/d/e/ f/g/_a/f/ | %49
 =B/c/d/B/ G z c2 g2 | e3 d cedc | =Bd !tenuto!.G2 c.Gd.G | ed/c/ d.G cG/c/ dG/d/ | %53
 ed/c/ d/G/g/f/ e/d/c/e/ d/c/=B/d/ | %54
 !tenuto!c/!wedge!g/!wedge!e/!wedge!g/ !wedge!c/!wedge!e/!wedge!G/._B/ !tenuto!A/!wedge!c/!wedge!A/!wedge!c/ !wedge!F/!wedge!A/!wedge!C/.E/ | %55
 !tenuto!D/!wedge!f/!wedge!d/!wedge!f/ !wedge!B/!wedge!d/!wedge!F/.A/ !tenuto!G/!wedge!B/!wedge!G/!wedge!B/ !wedge!E/!wedge!G/!wedge!B,/.D/ | %56
 !tenuto!C/!wedge!e/!wedge!c/!wedge!e/ !wedge!A/!wedge!c/!wedge!=E/.G/ !tenuto!^F/!wedge!A/!wedge!F/!wedge!A/ !wedge!D/!wedge!F/!wedge!A,/.C/ | %57
 B,GA,^F G2 z2 | G/B/A/G/ d/A/ z/ c/ B/d/c/B/ f/c/ z/ e/ | %59
 d/f/e/d/ g/d/ z/ f/ =e/g/f/e/ a/e/ z/ g/ |[Q:1/4=70]"_molto rit." ^f2[Q:1/4=65] ga[Q:1/4=60] b4- | %61
 b2 a4 g2- | g2 ^f2 g2 z2 | z dga b/a/g/a/ ^f/g/f/g/ | a/g/^f/=e/ d/c/B/A/ B/d/c/d/ ^F/d/c/d/ | %65
 G/d/c/d/ ^F/d/c/d/ B/G/F/G/ c/G/F/G/ | %66
[Q:1/4=55]"_rit.                                molto rit." d/G/^F/G/[Q:1/4=50] c/G/F/G/[Q:1/4=45] B[Q:1/4=40]g[Q:1/4=30]A[Q:1/4=20]^f | %67
[Q:1/4=55] !fermata!g8 |] %68
V:2
 z8 | z8 | z8 | z8 | z8 | z8 | z8 | z8 | z8 | z8 | z8 | z4 G,2 D2 | B,3 A, G,B,A,G, | %13
 ^F,A, !tenuto!.D,2 G,.D,A,.D, | B,A,/G,/ A,.D, G,D,/G,/ A,D,/A,/ | %15
 B,A,/G,/ A,/D,/D/C/ B,/A,/G,/B,/ A,/G,/^F,/A,/ | G,/D,/G,/A,/ B,/C/D/=E/ F/E/D/F/ E/D/^C/E/ | %17
 .D.A,.D.=E[K:treble] F/G/F/G/ (9:6:9G/4A/4G/4A/4G/4A/4G/4A/4G/4F/4G/4 | %18
 A/G/A/B/ A/G/F/=E/ F/A/G/A/ ^C/A/G/A/ | D/A/G/A/ ^C/A/G/A/ F/D/C/D/ G/D/C/D/ | %20
 A/D/^C/D/ G/D/C/D/ F=E/D/ (9:6:9C/4D/4C/4D/4C/4D/4C/4D/4C/4D/ | %21
 D/=C/D/=E/ D/C/B,/A,/[K:bass] G,/F,/G,/A,/ G,/F,/_E,/D,/ | %22
 C/B,/C/D/ C/B,/A,/G,/ F,/E,/F,/G,/ F,/E,/D,/C,/ | B,,/B,/C/D/ E2 z/ A,/B,/C/ D2 | G,2 D2 B,3 A, | %25
 G,/B,/A,/G,/ ^F,/G,/=E,/F,/ G,/D,/E,/F,/ G,/D,/G,/A,/ | %26
 B,/C/B,/C/ (9:6:9C/4D/4C/4D/4C/4D/4C/4D/4C/4B,/4C/4 D/C/D/_E/ z/ C/B,/A,/ | %27
 B,/D/C/D/ ^F,/D/C/D/ G,/D/C/D/ F,/D/C/D/ | B,/G,/^F,/G,/ C/G,/F,/G,/ D/G,/F,/G,/ C/G,/F,/G,/ | %29
 G,B, C/B,/A,/C/ B,2- B,/D/C/B,/ | A,2- A,/C/B,/A,/ G,2- G,/B,/A,/G,/ | F,3 =E, F,_E,D,C, | %32
 B,,2 z2 z CB,A, | B,DCB, A,C !tenuto!.F,2 | B,.F,C.F, DC/B,/ C.F, | %35
 B,F,/B,/ CF,/C/ DC/B,/ C/F,/ z/ E/ | D/C/B,/D/ C/B,/A,/C/ B,G z G, | A,F z F, G,FC=E | %38
[K:treble] F/_E/F/G/ F/E/D/F/ E/D/E/F/ E/D/C/E/ | D/C/D/E/ D/C/B,/D/ C/B,/C/D/ C/B,/A,/C/ | %40
 B,/C/D/B,/ C/D/E/C/ D/C/B,/C/ D/E/D/E/ | %41
 F/G/F/G/ (9:6:9G/4A/4G/4A/4G/4A/4G/4A/4G/4F/4G/4 A/G/A/B/ A/G/F/E/ | %42
 D/F/E/F/ A,/F/E/F/ B,/F/E/F/ A,/F/E/F/ | D/B/A/B/ E/B/A/B/ F/B/A/B/ E/B/A/B/ | %44
 B/d/c/B/ A/G/F/E/ z FBA | G4- GCAG |[K:bass] F4- FB,GF | E4- E/E/D/C/ =B,2 | C2 z2 z C_AF- | %49
 F2- F/F/E/D/ E/D/C/E/ D/C/=B,/D/ | C/G,/C/D/ E/F/E/F/ G/E/C/G/ _A/F/G/A/ | %51
 D/E/D/C/ =B,D G,/4_A,/4G,/4A,/4G,/4A,/4G,/4A,/4 G,/4A,/4G,/4A,/4G,/4A,/4G,/4A,/4 | %52
 G,/4_A,/4G,/4A,/4G,/4A,/4G,/4A,/4 G,/4A,/4G,/4A,/4G,/4A,/4G,/4A,/4 G,/4A,/4G,/4A,/4G,/4A,/4G,/4A,/4 G,/4A,/4G,/4A,/4G,/4A,/4G,/4A,/4 | %53
 G,/4_A,/4G,/4A,/4G,/4A,/4G,/4A,/4 G,/4A,/4G,/4A,/4G,/4A,/4G,/4A,/4 G,G F/E/D/F/ | E2 z2 z C=A, z | %55
 B,4- B,B,G, z | A,4- A,A,^F,D, | G,2 z2 G,/B,/A,/G,/ D/A,/ z/ C/ |[K:treble] B,DA, D2 GCF- | %59
 FED G2 G=EA- | A/_e/d/c/ B/d/A/d/ G2 AB | c/G/=F/_E/ c/A/F/A/ B/F/E/D/ B/G/E/G/ | %62
 A/E/D/C/ A/^F/D/F/ G,/B,/D/G/ F/G/=E/F/ | B/c/B/c/ d/e/d/c/ BdcB | A2[K:bass] z D D4- | D8- | %66
 D4- DEED | !fermata!D8 |] %68
V:3
 z8 | z8 | z8 | z8 | z8 | z8 | z8 | z8 | z8 | z8 | z8 | z8 | z8 | z8 | z8 | z8 | z4 [D,D]2 [A,A]2 | %17
 [F,F]3 [=E,=E] [D,D][F,F][E,E][D,D] | [^C,^C][=E,=E] [A,,A,]2 [D,D][A,,A,][E,E][A,,A,] | %19
 [F,F][=E,=E]/[D,D]/ [E,E][A,,A,] [D,D][A,,A,]/[D,D]/ [E,E][A,,A,]/[E,E]/ | %20
 [F,F][=E,=E]/[D,D]/ [E,E][A,,A,] [D,D][G,,G,] [A,,A,]2 | [D,,D,]2 z2 z4 | z8 | z8 | z8 | %25
 z4 z [G,,G,][G,G][=F,F] | [_E,E] z [E,,E,] z [D,,D,][D,D] [D,D]2- | [D,D]8- | [D,D]8- | %29
 [D,D]6 [C,C]2- | [C,C]2 [B,,B,]4 [A,,A,]2 | [B,,B,][A,,A,] [G,,G,]2 [F,,F,]2 z2 | z8 | z8 | z8 | %35
 z8 | z8 | z8 | z8 | z8 | [B,,B,]2 [F,F]2 [D,D]3 [C,C] | %41
 [B,,B,][D,D][C,C][B,,B,] [A,,A,][C,C] [F,,F,]2 | %42
 [B,,B,][F,,F,][C,C][F,,F,] [D,D][C,C]/[B,,B,]/ [C,C][F,,F,] | %43
 [B,,B,][F,,F,]/[B,,B,]/ [C,C][F,,F,]/[C,C]/ [D,D][C,C]/[B,,B,]/ [C,C][F,,F,] | %44
 [D,D][E,E][F,F][F,,F,] [B,,B,]2 z2 | [C,C]2 z2 [F,,F,]2 z2 | [B,,B,]2 z2 [E,,E,]2 z2 | %47
 [_A,,_A,]2 z2 [D,,D,]2 [G,,G,]2 | [C,,C,]2 z2 [F,,F,]2 z2 | [G,,G,]8 | %50
 [C,,C,][G,,G,][C,C][D,D] [E,E]2 [F,F]2 | %51
 [G,G]2- [G,G]/[G,G]/[F,F]/[G,G]/ [E,E]/[G,G]/[F,F]/[G,G]/ [=B,,=B,]/[G,G]/[F,F]/[G,G]/ | %52
 [C,C]/[G,G]/[F,F]/[G,G]/ [=B,,=B,]/[G,G]/[F,F]/[G,G]/ [E,E]/[Cc]/[B,=B]/[Cc]/ [F,F]/[Cc]/[B,B]/[Cc]/ | %53
 [G,G]/[Cc]/[=B,=B]/[Cc]/ [G,G]/[B,B]/[A,A]/[B,B]/ [C,C][E,E][F,F][G,G] | [C,C]2 z2 z4 | z8 | z8 | %57
 z8 | z8 | z8 | z8 | z8 | z4 [G,G]2 [Dd]2 | [B,B]3 [A,A] [G,G][B,B][A,A][G,G] | %64
 [^F,^F][A,A] [D,D]2 [G,G][D,D][A,A][D,D] | %65
 [B,B][A,A]/[G,G]/ [A,A][D,D] [G,G][D,D]/[G,G]/ [A,A][D,D]/[A,A]/ | %66
 [B,B][A,A]/[G,G]/ [A,A][D,D] [G,G][E,E][C,C][D,D] | !fermata![G,,G,]8 |] %68
V:4
 x8 | x8 | x8 | x8 | x8 | D2 A2 F3 =E | DF=ED ^CE !tenuto!.A,2 | D.A,=E.A, FE/D/ E.A, | %8
 DA,/D/ =EA,/E/ FE/D/ E/A,/A/G/ | F/=E/D/F/ E/D/^C/E/ D/A,/D/E/ F/G/A/=B/ | %10
 c/_B/c/d/ c/B/A/c/ B/A/B/c/ B/A/G/B/ | AG^FD G2 z2 | %12
 z .D.G.A B/c/B/c/ (9:6:9c/4d/4c/4d/4c/4d/4c/4d/4c/4B/4c/4 | d/c/d/_e/ d/c/B/A/ D z C z | %14
 D z C z z/ G/^F/G/ z/ G/F/G/ | z/ G/^F/G/ z/ G/F/G/ D2 C2 | B,2 z2 z4 | x8 | x8 | x8 | x8 | %21
 z Adc B4- | BGcB A4- | A2 G4 ^F2 | G z z2 z4 | x8 | x8 | x8 | x8 | x8 | x8 | x8 | B,2 F2 D3 C | %33
 x6 z F | F8- | F7 F- | F4 z4 | x8 | x8 | x8 | x8 | x8 | x8 | x8 | x8 | x8 | x8 | x8 | x8 | x8 | %50
 x8 | x8 | x8 | x8 | x8 | x8 | x8 | x8 | x8 | x8 | x4 z/ _a/g/^f/ g/=f/e/d/ | e4 d4 | %62
 c4 B/d/c/B/ A/B/G/A/ | x8 | x8 | x8 | x8 | x8 |] %68
V:5
 x8 | x8 | x8 | x8 | x8 | x8 | x8 | x8 | x8 | x8 | x8 | x8 | x8 | x8 | x8 | x8 | x8 | %17
 x4[K:treble] x4 | x8 | x8 | x8 | x4[K:bass] x4 | x8 | x8 | x8 | x8 | x8 | x8 | x8 | x8 | x8 | x8 | %32
 x8 | G,4 F,2 x2 | x8 | x8 | x8 | x8 |[K:treble] x8 | x8 | x8 | x8 | x8 | x8 | z4 D4- | %45
 DG,CB, A,4- |[K:bass] A,F,B,A, G,4- | G,E,_A,G, F,2 G,2- | G,/G,/=A,/=B,/ C/D/E/C/ _A,4 | %49
 G,=A, =B,2 C z z2 | x8 | x8 | x8 | x8 | z G,E,C, F,3 F,- | F,F,D,B,, E,3 E,- | E,E,C,A,, D,4 | %57
 G,,/B,,/A,,/G,,/ D,/A,,/D,,/C,/ B,,D,^F,,D, |[K:treble] G,2 ^F,2 G,2 A,2 | B,2 =B,2 C2 ^C2 | %60
 D2 =E^F x4 | x8 | x8 | x8 | x2[K:bass] z ^F, G, z C z | B, z C z B, z A, z | G, z A, z G,B,CA, | %67
 =B,8 |] %68

